X:19053
T:Shrewsbury Lasses
R:March
C:Trad.
O:England
Z:Paul Hardy's Session Tunebook 2015 (see www.paulhardy.net). Creative Commons cc by-nc-sa licenced.
M:4/4
L:1/8
Q:1/2=90
K:D
(3ABc|"D"d2 "A"A2-A2 G2|"D"F2 D2-D2 F2|"Em"E2 G2 "A7"F2 E2|"D"F2 D2 F2 A2|"Bm"d2 "E7"f2-f2 d2|"A"c2 e2-e2 A2|"Bm"B2 d2 "E7"B2 ^G2|"A"A6:|
|:(3ABc|"G"d2 B2-B2 G2-|"Am"G2 E2-E2 a2-|"D"a2 f2-f2 d2-|"Bm"d2 B2-B2 b2-|"Em"b2 g2-g2 e2-|"A7"e2 c2-c2 A2|
"G"G2 B2-B2 G2|"D"(3F2G2A2 F2 D2|"G"G2 B2-B2 G2|"D"F2 A2 d2 f2|"E7"f2 e2 "A7"d2 c2|"D"d6:|

